X:1
T: Miss Isabella Robertson's Reel
C:R. Mackintosh
R:Jig
Q: 180
K:Dm
M:6/8
L:1/8
|:A|D1/2E1/2FD d^cd|AGF EFD|C3 c=Bc|GFE DEC|
D1/2E1/2FD fef|ed^c d=cB|AGF GFE|FDD D2:|
|:g|fad fad|bag afd|egc egc|
|1agf gec|fad fad|bag afd|^cde Aae|fdd d2:|
|2agf ge^c|def efg|fga gab|agf gfe|d3 d2||
